X:171
T:Coxes Dance. (p)1665.PLFD.171
M:6/4
L:1/4
Q:3/4=80
S:Playford, Dancing Master,2nd Supp. to 3rd Ed.,1665
O:England
H:166
Z:Chris Partington
K:D
A|defe>dc|dB2A>GF|GABABc|d3-d2:|
|:f/g/|a>bag>ag|f3e2a/g/|f>edd>ef|B3A2B/c/|
dBecAf|geafdA|Bcdd2c|d3-d2:|
